mimes/48/x-office-drawing-template.svg

<?xml version="1.0" encoding="UTF-8" standalone="no"?>
<svg
   xmlns:dc="http://purl.org/dc/elements/1.1/"
   xmlns:cc="http://creativecommons.org/ns#"
   xmlns:rdf="http://www.w3.org/1999/02/22-rdf-syntax-ns#"
   xmlns:svg="http://www.w3.org/2000/svg"
   xmlns="http://www.w3.org/2000/svg"
   xmlns:xlink="http://www.w3.org/1999/xlink"
   version="1.1"
   width="48"
   height="48"
   id="svg4168">
  <defs
     id="defs4170">
    <linearGradient
       x1="28.534189"
       y1="24.239939"
       x2="16.887266"
       y2="13.663627"
       id="linearGradient3058"
       xlink:href="#linearGradient4102"
       gradientUnits="userSpaceOnUse"
       gradientTransform="matrix(1.0501977,0,0,0.9932209,-1.681624,-0.76407796)" />
    <linearGradient
       id="linearGradient4102">
      <stop
         id="stop4104"
         style="stop-color:#fda852;stop-opacity:1"
         offset="0" />
      <stop
         id="stop4106"
         style="stop-color:#ffffff;stop-opacity:0"
         offset="1" />
    </linearGradient>
    <linearGradient
       x1="23.99999"
       y1="5.5641499"
       x2="23.99999"
       y2="43"
       id="linearGradient3988"
       xlink:href="#linearGradient3977"
       gradientUnits="userSpaceOnUse"
       gradientTransform="matrix(0.89189189,0,0,1.1351351,2.5945999,-4.7432314)" />
    <linearGradient
       id="linearGradient3977">
      <stop
         id="stop3979"
         style="stop-color:#ffffff;stop-opacity:1"
         offset="0" />
      <stop
         id="stop3981"
         style="stop-color:#ffffff;stop-opacity:0.23529412"
         offset="0.03626217" />
      <stop
         id="stop3983"
         style="stop-color:#ffffff;stop-opacity:0.15686275"
         offset="0.95056331" />
      <stop
         id="stop3985"
         style="stop-color:#ffffff;stop-opacity:0.39215687"
         offset="1" />
    </linearGradient>
    <linearGradient
       x1="25.132275"
       y1="0.98520643"
       x2="25.132275"
       y2="47.013336"
       id="linearGradient3322"
       xlink:href="#linearGradient3600"
       gradientUnits="userSpaceOnUse"
       gradientTransform="matrix(1,0,0,0.9561695,-9.9999999e-8,-1.9149218)" />
    <linearGradient
       id="linearGradient3600">
      <stop
         id="stop3602"
         style="stop-color:#f4f4f4;stop-opacity:1"
         offset="0" />
      <stop
         id="stop3604"
         style="stop-color:#dbdbdb;stop-opacity:1"
         offset="1" />
    </linearGradient>
    <linearGradient
       x1="-51.786404"
       y1="50.786446"
       x2="-51.786404"
       y2="2.9062471"
       id="linearGradient3324"
       xlink:href="#linearGradient3104"
       gradientUnits="userSpaceOnUse"
       gradientTransform="matrix(0.8074968,0,0,0.8948322,59.410232,-2.9805531)" />
    <linearGradient
       id="linearGradient3104">
      <stop
         id="stop3106"
         style="stop-color:#a0a0a0;stop-opacity:1"
         offset="0" />
      <stop
         id="stop3108"
         style="stop-color:#bebebe;stop-opacity:1"
         offset="1" />
    </linearGradient>
    <radialGradient
       cx="605.71429"
       cy="486.64789"
       r="117.14286"
       fx="605.71429"
       fy="486.64789"
       id="radialGradient3327"
       xlink:href="#linearGradient5060"
       gradientUnits="userSpaceOnUse"
       gradientTransform="matrix(0.02303995,0,0,0.01470022,26.360882,37.040176)" />
    <linearGradient
       id="linearGradient5060">
      <stop
         id="stop5062"
         style="stop-color:#000000;stop-opacity:1"
         offset="0" />
      <stop
         id="stop5064"
         style="stop-color:#000000;stop-opacity:0"
         offset="1" />
    </linearGradient>
    <radialGradient
       cx="605.71429"
       cy="486.64789"
       r="117.14286"
       fx="605.71429"
       fy="486.64789"
       id="radialGradient3330"
       xlink:href="#linearGradient5060"
       gradientUnits="userSpaceOnUse"
       gradientTransform="matrix(-0.02303994,0,0,0.01470022,21.62311,37.040176)" />
    <linearGradient
       id="linearGradient5048">
      <stop
         id="stop5050"
         style="stop-color:#000000;stop-opacity:0"
         offset="0" />
      <stop
         id="stop5056"
         style="stop-color:#000000;stop-opacity:1"
         offset="0.5" />
      <stop
         id="stop5052"
         style="stop-color:#000000;stop-opacity:0"
         offset="1" />
    </linearGradient>
    <linearGradient
       x1="302.85715"
       y1="366.64789"
       x2="302.85715"
       y2="609.50507"
       id="linearGradient4166"
       xlink:href="#linearGradient5048"
       gradientUnits="userSpaceOnUse"
       gradientTransform="matrix(0.06732488,0,0,0.01470022,-0.3411391,37.040146)" />
    <radialGradient
       cx="605.71429"
       cy="486.64789"
       r="117.14286"
       fx="605.71429"
       fy="486.64789"
       id="radialGradient3907"
       xlink:href="#linearGradient5060-3"
       gradientUnits="userSpaceOnUse"
       gradientTransform="matrix(0.02303995,0,0,0.01470022,26.360882,36.963253)" />
    <linearGradient
       id="linearGradient5060-3">
      <stop
         id="stop5062-5"
         style="stop-color:#000000;stop-opacity:1"
         offset="0" />
      <stop
         id="stop5064-2"
         style="stop-color:#000000;stop-opacity:0"
         offset="1" />
    </linearGradient>
    <linearGradient
       x1="42.783993"
       y1="32.537422"
       x2="38.972309"
       y2="18.12406"
       id="linearGradient3909"
       xlink:href="#linearGradient3412"
       gradientUnits="userSpaceOnUse"
       gradientTransform="matrix(1.3333334,0,0,-1.3333334,-16.166666,70.166667)" />
    <linearGradient
       id="linearGradient3412">
      <stop
         id="stop3414"
         style="stop-color:#fcfcfc;stop-opacity:1"
         offset="0" />
      <stop
         id="stop3416"
         style="stop-color:#cbcdd9;stop-opacity:1"
         offset="1" />
    </linearGradient>
    <linearGradient
       x1="40.105618"
       y1="31.65719"
       x2="33.811069"
       y2="18.353575"
       id="linearGradient3911"
       xlink:href="#linearGradient3428"
       gradientUnits="userSpaceOnUse"
       gradientTransform="matrix(1.33,0,0,-1.33,-16.064999,70.028077)" />
    <linearGradient
       id="linearGradient3428">
      <stop
         id="stop3430"
         style="stop-color:#ffffff;stop-opacity:1"
         offset="0" />
      <stop
         id="stop3432"
         style="stop-color:#ffffff;stop-opacity:0"
         offset="1" />
    </linearGradient>
  </defs>
  <metadata
     id="metadata4173">
    <rdf:RDF>
      <cc:Work
         rdf:about="">
        <dc:format>image/svg+xml</dc:format>
        <dc:type
           rdf:resource="http://purl.org/dc/dcmitype/StillImage" />
        <dc:title />
      </cc:Work>
    </rdf:RDF>
  </metadata>
  <g
     id="layer1">
    <rect
       width="32.508301"
       height="3.5700529"
       x="7.7378473"
       y="42.429947"
       id="rect2879"
       style="opacity:0.3;fill:url(#linearGradient4166);fill-opacity:1;fill-rule:nonzero;stroke:none;stroke-width:1;marker:none;visibility:visible;display:inline;overflow:visible" />
    <path
       d="m 7.7378475,42.430102 c 0,0 0,3.569856 0,3.569856 -1.1865002,0.0067 -2.8683795,-0.799823 -2.8683795,-1.785158 0,-0.985333 1.3240446,-1.784697 2.8683795,-1.784698 z"
       id="path2881"
       style="opacity:0.3;fill:url(#radialGradient3330);fill-opacity:1;fill-rule:nonzero;stroke:none;stroke-width:1;marker:none;visibility:visible;display:inline;overflow:visible" />
    <path
       d="m 40.246148,42.430102 c 0,0 0,3.569856 0,3.569856 1.1865,0.0067 2.86838,-0.799823 2.86838,-1.785158 0,-0.985333 -1.324045,-1.784697 -2.86838,-1.784698 z"
       id="path2883"
       style="opacity:0.3;fill:url(#radialGradient3327);fill-opacity:1;fill-rule:nonzero;stroke:none;stroke-width:1;marker:none;visibility:visible;display:inline;overflow:visible" />
    <path
       d="M 6.4999609,0.497199 C 14.520256,0.497199 41.5,0.5 41.5,0.5 l 4.2e-5,44.002803 c 0,0 -23.333387,0 -35.0000811,0 0,-14.668535 0,-29.33707 0,-44.00560407 z"
       id="path4160"
       style="fill:url(#linearGradient3322);fill-opacity:1;stroke:url(#linearGradient3324);stroke-width:0.99992186;stroke-linecap:butt;stroke-linejoin:round;stroke-miterlimit:4;stroke-opacity:1;stroke-dasharray:none;stroke-dashoffset:0;display:inline" />
    <path
       d="m 40.5,43.5 -33,0 0,-41.9999998 33,0 z"
       id="rect6741-1"
       style="fill:none;stroke:url(#linearGradient3988);stroke-width:1;stroke-linecap:round;stroke-linejoin:round;stroke-miterlimit:4;stroke-opacity:1;stroke-dasharray:none;stroke-dashoffset:0" />
    <path
       d="m 15.493102,34.578022 c 4.386207,2.813793 13.962591,-0.950658 6.001067,-11.02474 C 13.604717,13.570396 29.332759,7.0228144 34,18.567721"
       id="path2783"
       style="fill:url(#linearGradient3058);fill-opacity:1;fill-rule:evenodd;stroke:#ea541a;stroke-width:0.99999982px;stroke-linecap:butt;stroke-linejoin:miter;stroke-opacity:1" />
    <path
       d="M 14.438316,14.480986 29.568109,33.402047"
       id="path3571"
       style="fill:#f37329;fill-opacity:1;stroke:#ea541a;stroke-width:1px;stroke-linecap:butt;stroke-linejoin:miter;stroke-opacity:1" />
    <path
       d="m 30.5,33.500001 c 3.72e-4,0.552547 -0.447453,1.000673 -1,1.000673 -0.552547,0 -1.000372,-0.448126 -1,-1.000673 -3.72e-4,-0.552548 0.447453,-1.000674 1,-1.000674 0.552547,0 1.000372,0.448126 1,1.000674 l 0,0 z M 15.5,14.5 c 3.72e-4,0.552548 -0.447453,1.000673 -1,1.000673 -0.552547,0 -1.000372,-0.448125 -1,-1.000673 -3.72e-4,-0.552548 0.447453,-1.000673 1,-1.000673 0.552547,0 1.000372,0.448125 1,1.000673 l 0,0 z"
       id="path3575"
       style="fill:#e6e6e6;fill-opacity:1;stroke:#ea541a;stroke-width:1;stroke-linecap:butt;stroke-miterlimit:4;stroke-opacity:1;stroke-dasharray:none" />
    <path
       d="m 20,22 3,0 0,3 -3,0 z m 12,-5 3,0 0,3 -3,0 z m -19,16 3,0 0,3 -3,0 z"
       id="rect3569"
       style="fill:#ea541a;fill-opacity:1;stroke:none" />
  </g>
  <g
     transform="translate(-2.000001,0)"
     id="g3896">
    <path
       d="m 40.246148,42.353179 c 0,0 0,3.569856 0,3.569856 1.1865,0.0067 2.86838,-0.799823 2.86838,-1.785158 0,-0.985333 -1.324045,-1.784697 -2.86838,-1.784698 z"
       id="path2883-9"
       style="opacity:0.3;fill:url(#radialGradient3907);fill-opacity:1;fill-rule:nonzero;stroke:none;stroke-width:1;marker:none;visibility:visible;display:inline;overflow:visible" />
    <path
       d="m 24.500001,45.5 20.000001,-20.000001 0,20.000001 -20.000001,0 z m 9.333333,-4.000001 6.666667,0 0,-6.666666 -6.666667,6.666666 z"
       id="path3410"
       style="opacity:0.8;fill:url(#linearGradient3909);fill-opacity:1;fill-rule:evenodd;stroke:#83899a;stroke-width:1;stroke-linecap:butt;stroke-linejoin:miter;stroke-miterlimit:4;stroke-opacity:1;stroke-dasharray:none" />
    <path
       d="m 27.450938,44.217765 15.79375,-15.793751 0,15.793751 -15.79375,0 z"
       id="path3424"
       style="opacity:0.4;fill:none;stroke:url(#linearGradient3911);stroke-width:1;stroke-linecap:butt;stroke-linejoin:miter;stroke-miterlimit:4;stroke-opacity:1;stroke-dasharray:none" />
    <path
       d="M 29.5,44.346154 29.5,45.5"
       id="path3082"
       style="opacity:0.6;fill:none;stroke:#83899a;stroke-width:1px;stroke-linecap:square;stroke-linejoin:miter;stroke-opacity:1" />
    <path
       d="M 34.5,44.346154 34.5,45.5"
       id="path3854"
       style="opacity:0.6;fill:none;stroke:#83899a;stroke-width:1px;stroke-linecap:square;stroke-linejoin:miter;stroke-opacity:1" />
    <path
       d="M 39.5,44.346154 39.5,45.5"
       id="path3856"
       style="opacity:0.6;fill:none;stroke:#83899a;stroke-width:1px;stroke-linecap:square;stroke-linejoin:miter;stroke-opacity:1" />
    <path
       d="m 44.50049,35.423077 -1.00049,0"
       id="path3858"
       style="opacity:0.6;fill:none;stroke:#83899a;stroke-width:1px;stroke-linecap:square;stroke-linejoin:miter;stroke-opacity:1" />
    <path
       d="m 44.50049,40.423077 -1.00049,0"
       id="path3860"
       style="opacity:0.6;fill:none;stroke:#83899a;stroke-width:1px;stroke-linecap:square;stroke-linejoin:miter;stroke-opacity:1" />
    <path
       d="m 44.50049,30.423077 -1.00049,0"
       id="path3862"
       style="opacity:0.6;fill:none;stroke:#83899a;stroke-width:1px;stroke-linecap:square;stroke-linejoin:miter;stroke-opacity:1" />
  </g>
</svg>

<?xml version="1.0" encoding="UTF-8" standalone="no"?>
<svg
   xmlns:dc="http://purl.org/dc/elements/1.1/"
   xmlns:cc="http://creativecommons.org/ns#"
   xmlns:rdf="http://www.w3.org/1999/02/22-rdf-syntax-ns#"
   xmlns:svg="http://www.w3.org/2000/svg"
   xmlns="http://www.w3.org/2000/svg"
   xmlns:xlink="http://www.w3.org/1999/xlink"
   id="svg3901"
   height="48"
   width="48"
   version="1.1">
  <defs
     id="defs3903">
    <linearGradient
       id="linearGradient3403">
      <stop
         id="stop3405"
         style="stop-color:#ffffff;stop-opacity:1"
         offset="0" />
      <stop
         id="stop3407"
         style="stop-color:#ffffff;stop-opacity:0.23529412"
         offset="0" />
      <stop
         id="stop3409"
         style="stop-color:#ffffff;stop-opacity:0.15686275"
         offset="1" />
      <stop
         id="stop3411"
         style="stop-color:#ffffff;stop-opacity:0.39215687"
         offset="1" />
    </linearGradient>
    <linearGradient
       id="linearGradient3600">
      <stop
         offset="0"
         style="stop-color:#f4f4f4;stop-opacity:1"
         id="stop3602" />
      <stop
         offset="1"
         style="stop-color:#dbdbdb;stop-opacity:1"
         id="stop3604" />
    </linearGradient>
    <linearGradient
       id="linearGradient5060">
      <stop
         offset="0"
         style="stop-color:#000000;stop-opacity:1"
         id="stop5062" />
      <stop
         offset="1"
         style="stop-color:#000000;stop-opacity:0"
         id="stop5064" />
    </linearGradient>
    <linearGradient
       id="linearGradient5048">
      <stop
         offset="0"
         style="stop-color:#000000;stop-opacity:0"
         id="stop5050" />
      <stop
         offset="0.5"
         style="stop-color:#000000;stop-opacity:1"
         id="stop5056" />
      <stop
         offset="1"
         style="stop-color:#000000;stop-opacity:0"
         id="stop5052" />
    </linearGradient>
    <linearGradient
       id="linearGradient3104-6">
      <stop
         id="stop3106-3"
         style="stop-color:#000000;stop-opacity:0.31782946"
         offset="0" />
      <stop
         id="stop3108-9"
         style="stop-color:#000000;stop-opacity:0.24031007"
         offset="1" />
    </linearGradient>
    <linearGradient
       y2="42.110645"
       x2="23.99999"
       y1="5.9404659"
       x1="23.99999"
       gradientTransform="matrix(0.89189189,0,0,1.1351351,2.5945999,-4.7432314)"
       gradientUnits="userSpaceOnUse"
       id="linearGradient3106"
       xlink:href="#linearGradient3403" />
    <linearGradient
       y2="47.013336"
       x2="25.132275"
       y1="0.98520643"
       x1="25.132275"
       gradientTransform="matrix(0.97142632,0,0,0.93431938,0.68576678,-1.3569996)"
       gradientUnits="userSpaceOnUse"
       id="linearGradient3109"
       xlink:href="#linearGradient3600" />
    <radialGradient
       r="117.14286"
       fy="486.64789"
       fx="605.71429"
       cy="486.64789"
       cx="605.71429"
       gradientTransform="matrix(0.02303995,0,0,0.01470022,26.360882,37.040176)"
       gradientUnits="userSpaceOnUse"
       id="radialGradient3112"
       xlink:href="#linearGradient5060" />
    <radialGradient
       r="117.14286"
       fy="486.64789"
       fx="605.71429"
       cy="486.64789"
       cx="605.71429"
       gradientTransform="matrix(-0.02303994,0,0,0.01470022,21.62311,37.040176)"
       gradientUnits="userSpaceOnUse"
       id="radialGradient3115"
       xlink:href="#linearGradient5060" />
    <linearGradient
       y2="609.50507"
       x2="302.85715"
       y1="366.64789"
       x1="302.85715"
       gradientTransform="matrix(0.06732488,0,0,0.01470022,-0.3411391,37.040146)"
       gradientUnits="userSpaceOnUse"
       id="linearGradient3118"
       xlink:href="#linearGradient5048" />
    <linearGradient
       y2="2.9062471"
       x2="-51.786404"
       y1="50.786446"
       x1="-51.786404"
       gradientTransform="matrix(0.80749686,0,0,0.89471714,59.410232,-2.9773433)"
       gradientUnits="userSpaceOnUse"
       id="linearGradient3170"
       xlink:href="#linearGradient3104-6" />
    <linearGradient
       gradientTransform="matrix(1.0501977,0,0,0.9932209,-1.681624,-0.76407797)"
       gradientUnits="userSpaceOnUse"
       xlink:href="#linearGradient4102"
       id="linearGradient3058"
       y2="13.663627"
       x2="16.887266"
       y1="24.239939"
       x1="28.534189" />
    <linearGradient
       id="linearGradient4102">
      <stop
         offset="0"
         style="stop-color:#fda852;stop-opacity:1"
         id="stop4104" />
      <stop
         offset="1"
         style="stop-color:#ffffff;stop-opacity:0"
         id="stop4106" />
    </linearGradient>
    <radialGradient
       gradientTransform="matrix(0.02303995,0,0,0.01470022,26.360882,36.963253)"
       gradientUnits="userSpaceOnUse"
       xlink:href="#linearGradient5060"
       id="radialGradient3907"
       fy="486.64789"
       fx="605.71429"
       r="117.14286"
       cy="486.64789"
       cx="605.71429" />
    <linearGradient
       gradientTransform="matrix(1.3333334,0,0,-1.3333334,-16.166666,70.166667)"
       gradientUnits="userSpaceOnUse"
       xlink:href="#linearGradient3412"
       id="linearGradient3909"
       y2="18.12406"
       x2="38.972309"
       y1="32.537422"
       x1="42.783993" />
    <linearGradient
       id="linearGradient3412">
      <stop
         offset="0"
         style="stop-color:#fcfcfc;stop-opacity:1"
         id="stop3414" />
      <stop
         offset="1"
         style="stop-color:#cbcdd9;stop-opacity:1"
         id="stop3416" />
    </linearGradient>
    <linearGradient
       gradientTransform="matrix(1.33,0,0,-1.33,-16.064999,70.028077)"
       gradientUnits="userSpaceOnUse"
       xlink:href="#linearGradient3428"
       id="linearGradient3911"
       y2="18.353575"
       x2="33.811069"
       y1="31.65719"
       x1="40.105618" />
    <linearGradient
       id="linearGradient3428">
      <stop
         offset="0"
         style="stop-color:#ffffff;stop-opacity:1"
         id="stop3430" />
      <stop
         offset="1"
         style="stop-color:#ffffff;stop-opacity:0"
         id="stop3432" />
    </linearGradient>
  </defs>
  <metadata
     id="metadata3906">
    <rdf:RDF>
      <cc:Work
         rdf:about="">
        <dc:format>image/svg+xml</dc:format>
        <dc:type
           rdf:resource="http://purl.org/dc/dcmitype/StillImage" />
        <dc:title></dc:title>
      </cc:Work>
    </rdf:RDF>
  </metadata>
  <rect
     width="32.508301"
     height="3.5700529"
     x="7.7378473"
     y="42.429947"
     id="rect2879"
     style="opacity:0.3;fill:url(#linearGradient3118);fill-opacity:1;fill-rule:nonzero;stroke:none;stroke-width:1;marker:none;visibility:visible;display:inline;overflow:visible" />
  <path
     d="m 7.7378475,42.430102 c 0,0 0,3.569856 0,3.569856 -1.1865002,0.0067 -2.8683795,-0.799823 -2.8683795,-1.785158 0,-0.985333 1.3240446,-1.784697 2.8683795,-1.784698 z"
     id="path2881"
     style="opacity:0.3;fill:url(#radialGradient3115);fill-opacity:1;fill-rule:nonzero;stroke:none;stroke-width:1;marker:none;visibility:visible;display:inline;overflow:visible" />
  <path
     d="m 40.246148,42.430102 c 0,0 0,3.569856 0,3.569856 1.1865,0.0067 2.86838,-0.799823 2.86838,-1.785158 0,-0.985333 -1.324045,-1.784697 -2.86838,-1.784698 z"
     id="path2883"
     style="opacity:0.3;fill:url(#radialGradient3112);fill-opacity:1;fill-rule:nonzero;stroke:none;stroke-width:1;marker:none;visibility:visible;display:inline;overflow:visible" />
  <path
     d="m 7,1.0000001 c 7.791126,0 33.999959,0.00274 33.999959,0.00274 L 41,44 C 41,44 18.333334,44 7,44 7,29.666666 7,15.333333 7,1 z"
     id="path4160"
     style="fill:url(#linearGradient3109);fill-opacity:1;stroke:none;display:inline" />
  <path
     d="m 40.5,43.5 -33,0 0,-41.9999998 33,0 z"
     id="rect6741-1"
     style="fill:none;stroke:url(#linearGradient3106);stroke-width:1;stroke-linecap:round;stroke-linejoin:miter;stroke-miterlimit:4;stroke-opacity:1;stroke-dasharray:none;stroke-dashoffset:0" />
  <path
     d="m 6.4999605,0.4999623 c 8.0202885,0 35.0000415,0.00298 35.0000415,0.00298 l 3.7e-5,43.9970957 c 0,0 -23.333385,0 -35.0000785,0 0,-14.666738 0,-29.333326 0,-43.9998923 z"
     id="path4160-6-1"
     style="fill:none;stroke:url(#linearGradient3170);stroke-width:0.99992192;stroke-linecap:butt;stroke-linejoin:round;stroke-miterlimit:4;stroke-opacity:1;stroke-dasharray:none;stroke-dashoffset:0;display:inline" />
  <path
     d="m 15.493102,34.578022 c 4.386207,2.813793 13.962591,-0.950658 6.001067,-11.02474 C 13.604717,13.570396 29.332759,7.022814 34,18.567721"
     id="path2783"
     style="fill:url(#linearGradient3058);fill-opacity:1;fill-rule:evenodd;stroke:#ea541a;stroke-width:0.99999982px;stroke-linecap:butt;stroke-linejoin:miter;stroke-opacity:1" />
  <path
     d="M 14.438316,14.480986 29.568109,33.402047"
     id="path3571"
     style="fill:#f37329;fill-opacity:1;stroke:#ea541a;stroke-width:1px;stroke-linecap:butt;stroke-linejoin:miter;stroke-opacity:1" />
  <path
     d="m 30.5,33.500001 c 3.72e-4,0.552547 -0.447453,1.000673 -1,1.000673 -0.552547,0 -1.000372,-0.448126 -1,-1.000673 -3.72e-4,-0.552548 0.447453,-1.000674 1,-1.000674 0.552547,0 1.000372,0.448126 1,1.000674 l 0,0 z M 15.5,14.5 c 3.72e-4,0.552548 -0.447453,1.000673 -1,1.000673 -0.552547,0 -1.000372,-0.448125 -1,-1.000673 -3.72e-4,-0.552548 0.447453,-1.000673 1,-1.000673 0.552547,0 1.000372,0.448125 1,1.000673 l 0,0 z"
     id="path3575"
     style="fill:#e6e6e6;fill-opacity:1;stroke:#ea541a;stroke-width:1;stroke-linecap:butt;stroke-miterlimit:4;stroke-dasharray:none;stroke-opacity:1" />
  <path
     d="m 20,22 3,0 0,3 -3,0 z m 12,-5 3,0 0,3 -3,0 z m -19,16 3,0 0,3 -3,0 z"
     id="rect3569"
     style="fill:#ea541a;fill-opacity:1;stroke:none" />
  <g
     id="g3896"
     transform="translate(-2.0000012)">
    <path
       style="display:inline;overflow:visible;visibility:visible;opacity:0.3;fill:url(#radialGradient3907);fill-opacity:1;fill-rule:nonzero;stroke:none;stroke-width:1;marker:none"
       id="path2883-9"
       d="m 40.246148,42.353179 c 0,0 0,3.569856 0,3.569856 1.1865,0.0067 2.86838,-0.799823 2.86838,-1.785158 0,-0.985333 -1.324045,-1.784697 -2.86838,-1.784698 z" />
    <path
       style="opacity:0.8;fill:url(#linearGradient3909);fill-opacity:1;fill-rule:evenodd;stroke:#83899a;stroke-width:1;stroke-linecap:butt;stroke-linejoin:miter;stroke-miterlimit:4;stroke-dasharray:none;stroke-opacity:1"
       id="path3410"
       d="M 24.500001,45.5 44.500002,25.499999 V 45.5 Z m 9.333333,-4.000001 h 6.666667 v -6.666666 z" />
    <path
       style="opacity:0.4;fill:none;stroke:url(#linearGradient3911);stroke-width:1;stroke-linecap:butt;stroke-linejoin:miter;stroke-miterlimit:4;stroke-dasharray:none;stroke-opacity:1"
       id="path3424"
       d="M 27.450938,44.217765 43.244688,28.424014 V 44.217765 Z" />
    <path
       style="opacity:0.6;fill:none;stroke:#83899a;stroke-width:1px;stroke-linecap:square;stroke-linejoin:miter;stroke-opacity:1"
       id="path3082"
       d="M 29.5,44.346154 V 45.5" />
    <path
       style="opacity:0.6;fill:none;stroke:#83899a;stroke-width:1px;stroke-linecap:square;stroke-linejoin:miter;stroke-opacity:1"
       id="path3854"
       d="M 34.5,44.346154 V 45.5" />
    <path
       style="opacity:0.6;fill:none;stroke:#83899a;stroke-width:1px;stroke-linecap:square;stroke-linejoin:miter;stroke-opacity:1"
       id="path3856"
       d="M 39.5,44.346154 V 45.5" />
    <path
       style="opacity:0.6;fill:none;stroke:#83899a;stroke-width:1px;stroke-linecap:square;stroke-linejoin:miter;stroke-opacity:1"
       id="path3858"
       d="M 44.50049,35.423077 H 43.5" />
    <path
       style="opacity:0.6;fill:none;stroke:#83899a;stroke-width:1px;stroke-linecap:square;stroke-linejoin:miter;stroke-opacity:1"
       id="path3860"
       d="M 44.50049,40.423077 H 43.5" />
    <path
       style="opacity:0.6;fill:none;stroke:#83899a;stroke-width:1px;stroke-linecap:square;stroke-linejoin:miter;stroke-opacity:1"
       id="path3862"
       d="M 44.50049,30.423077 H 43.5" />
  </g>
</svg>
